assets/images/logo.svg

<svg width="40" height="40" viewBox="0 0 40 40" fill="none" xmlns="http://www.w3.org/2000/svg">
<path fill-rule="evenodd" clip-rule="evenodd" d="M30.909 27.5325V31.4285H33.5064V27.5325H40V39.4805H17.6624V27.5325H30.909Z" fill="#282A2E"/>
<path fill-rule="evenodd" clip-rule="evenodd" d="M40 0H17.6624V14.47L21.5474 12.227L21.5585 12.2078L38.1759 21.8019L36.8772 24.0513L21.5695 15.2134L17.6624 17.4692V26.2338H30.909V21.205L33.5064 22.7046V26.2338H40V0ZM33.5064 18.4764L33.5064 12.7269H30.909V16.9768L33.5064 18.4764Z" fill="#282A2E"/>
<path fill-rule="evenodd" clip-rule="evenodd" d="M15.8442 11.1689H0V33.7663H15.8442V18.5189L6.23377 24.0675L4.93506 21.8181L15.8442 15.5197V11.1689ZM9.61043 31.428V22.7173L12.2078 21.2177V31.428H9.61043Z" fill="#282A2E"/>
</svg>

<svg xmlns="http://www.w3.org/2000/svg" width="40" height="40" fill="none"><path fill="#282A2E" fill-rule="evenodd" d="M30.909 27.532v3.896h2.597v-3.896H40V39.48H17.662V27.534H30.91ZM40 0H17.662v14.47l3.885-2.243.011-.02 16.618 9.595-1.299 2.25-15.308-8.839-3.907 2.256v8.765H30.91v-5.029l2.597 1.5v3.529H40V0Zm-6.494 18.476v-5.75H30.91v4.25l2.597 1.5ZM15.844 11.169H0v22.597h15.844V18.52l-9.61 5.549-1.299-2.25 10.91-6.298v-4.351ZM9.61 31.428v-8.71l2.598-1.5v10.21H9.61Z" clip-rule="evenodd"/></svg>
